packages/kaspersky-hexa-ui-icons/src/iconsSVGs/16/Star.svg

<svg width="16" height="16" viewBox="0 0 16 16" fill="none" xmlns="http://www.w3.org/2000/svg">
<path fill-rule="evenodd" clip-rule="evenodd" d="M7.2148 1.90248C7.50516 1.20439 8.49409 1.20438 8.78445 1.90248L10.2988 5.54352L14.2296 5.85865C14.9833 5.91907 15.2889 6.8596 14.7147 7.35147L11.7198 9.91688L12.6348 13.7527C12.8102 14.4881 12.0102 15.0694 11.3649 14.6753L7.99962 12.6198L4.63431 14.6753C3.98908 15.0694 3.18901 14.4881 3.36444 13.7527L4.27942 9.91688L1.28456 7.35147C0.710354 6.8596 1.01594 5.91907 1.7696 5.85865L5.70041 5.54352L7.2148 1.90248ZM7.99962 3.40069L6.74826 6.40933C6.65465 6.63438 6.44301 6.78815 6.20004 6.80763L2.95196 7.06803L5.42666 9.18787C5.61177 9.34644 5.69261 9.59524 5.63606 9.83234L4.88 13.0019L7.66081 11.3034C7.86882 11.1764 8.13043 11.1764 8.33844 11.3034L11.1193 13.0019L10.3632 9.83234C10.3066 9.59524 10.3875 9.34644 10.5726 9.18787L13.0473 7.06803L9.7992 6.80763C9.55624 6.78815 9.34459 6.63438 9.25099 6.40933L7.99962 3.40069Z" fill="black"/>
</svg>

<svg xmlns="http://www.w3.org/2000/svg" width="16" height="16" fill="none" viewBox="0 0 16 16"><path fill="#000" fill-rule="evenodd" d="M7.2148 1.9025c.2904-.6981 1.2793-.6981 1.5696 0l1.5144 3.641 3.9308.3152c.7537.0604 1.0593 1.0009.4851 1.4928l-2.9949 2.5654.915 3.8358c.1754.7354-.6246 1.3167-1.2699.9226l-3.3653-2.0555-3.3653 2.0555c-.6452.3941-1.4453-.1872-1.2699-.9226l.915-3.8358-2.9948-2.5654c-.5742-.4919-.2687-1.4324.485-1.4928l3.9308-.3152zm.7848 1.4982L6.7483 6.4093a.65.65 0 0 1-.5483.3983l-3.248.2604 2.4747 2.12a.65.65 0 0 1 .2094.6444L4.88 13.002l2.7808-1.6985a.65.65 0 0 1 .6776 0l2.7809 1.6985-.7561-3.1696a.65.65 0 0 1 .2094-.6444l2.4747-2.1199-3.2481-.2604a.65.65 0 0 1-.5482-.3983z"/></svg>
